images/hamburger.svg

<svg fill="none" height="21" viewBox="0 0 29 21" width="29" xmlns="http://www.w3.org/2000/svg"><g fill="#080809"><path d="m.322388.109375h28.677712v3.445315h-28.677712z"/><path d="m.322388 8.75h28.677712v3.5h-28.677712z"/><path d="m.322388 17.4453h28.677712v3.4453h-28.677712z"/></g></svg>

<svg width="29" height="21" viewBox="0 0 29 21" fill="none" xmlns="http://www.w3.org/2000/svg">
<path d="M0.322388 0.109375H29.0001V3.55469H0.322388V0.109375Z" fill="#080809"/>
<path d="M0.322388 8.75H29.0001V12.25H0.322388V8.75Z" fill="#080809"/>
<path d="M0.322388 17.4453H29.0001V20.8906H0.322388V17.4453Z" fill="#080809"/>
</svg>
